icons/filter-remove-24.svg

<svg width="24" height="24" viewBox="0 0 24 24" fill="none" xmlns="http://www.w3.org/2000/svg">
<path d="M21.5873 9.27297C21.8802 9.56586 22.3551 9.56586 22.648 9.27297C22.9409 8.98008 22.9409 8.5052 22.648 8.21231L21.057 6.62132L22.648 5.03033C22.9409 4.73744 22.9409 4.26257 22.648 3.96967C22.3551 3.67678 21.8802 3.67678 21.5873 3.96967L19.9963 5.56066L18.4053 3.96967C18.1125 3.67678 17.6376 3.67678 17.3447 3.96967C17.0518 4.26256 17.0518 4.73744 17.3447 5.03033L18.9357 6.62132L17.3447 8.21231C17.0518 8.50521 17.0518 8.98008 17.3447 9.27297C17.6376 9.56587 18.1124 9.56587 18.4053 9.27297L19.9963 7.68198L21.5873 9.27297Z" fill="black"/>
<path d="M1.75 6C1.33579 6 1 6.33578 1 6.75C1 7.16421 1.33579 7.5 1.75 7.5H14.5C14.9142 7.5 15.25 7.16421 15.25 6.75C15.25 6.33578 14.9142 6 14.5 6H1.75Z" fill="black"/>
<path d="M5 11.75C5 11.3358 5.33579 11 5.75 11H16.25C16.6642 11 17 11.3358 17 11.75C17 12.1642 16.6642 12.5 16.25 12.5H5.75C5.33579 12.5 5 12.1642 5 11.75Z" fill="black"/>
<path d="M9 16.6875C9 16.2733 9.33579 15.9375 9.75 15.9375H12.25C12.6642 15.9375 13 16.2733 13 16.6875C13 17.1017 12.6642 17.4375 12.25 17.4375H9.75C9.33579 17.4375 9 17.1017 9 16.6875Z" fill="black"/>
</svg>

<svg xmlns="http://www.w3.org/2000/svg" width="24" height="24" viewBox="0 0 24 24"><path d="M21.587 9.273a.75.75 0 1 0 1.061-1.061l-1.591-1.591 1.591-1.591a.749.749 0 1 0-1.061-1.06l-1.591 1.591-1.591-1.591a.749.749 0 1 0-1.06 1.06l1.591 1.591-1.591 1.591a.75.75 0 0 0 1.06 1.061l1.591-1.591 1.591 1.591ZM1.75 6a.75.75 0 0 0 0 1.5H14.5a.75.75 0 0 0 0-1.5H1.75ZM5 11.75a.75.75 0 0 1 .75-.75h10.5a.75.75 0 0 1 0 1.5H5.75a.75.75 0 0 1-.75-.75Zm4 4.938a.75.75 0 0 1 .75-.75h2.5a.75.75 0 1 1 0 1.5h-2.5a.75.75 0 0 1-.75-.75Z"/></svg>
